findly-builder/apps/searchassist/src/assets/icons/comment.svg

<svg width="19" height="20" viewBox="0 0 19 20" fill="none" xmlns="http://www.w3.org/2000/svg">
<path fill-rule="evenodd" clip-rule="evenodd" d="M16.3816 0C17.5281 0 18.4676 0.889698 18.5472 2.01605L18.5526 2.17105V13.5395C18.5526 14.686 17.6629 15.6255 16.5366 15.7051L16.3816 15.7105L14.2895 15.7105V19.204L9.04847 15.7105L2.17105 15.7105C1.07665 15.7105 0.170827 14.8999 0.021568 13.8465L0.00545333 13.6945L0 13.5395V2.17105C0 1.02453 0.889698 0.0849857 2.01605 0.00545333L2.17105 0H16.3816ZM16.3816 1.5H2.17105C1.8345 1.5 1.55527 1.74863 1.50728 2.07198L1.5 2.17105V13.5395C1.5 13.876 1.74863 14.1553 2.07198 14.2032L2.17105 14.2105H9.5034L12.7895 16.4015V14.2105H16.3816C16.7181 14.2105 16.9974 13.9619 17.0453 13.6385L17.0526 13.5395V2.17105C17.0526 1.8345 16.804 1.55527 16.4807 1.50728L16.3816 1.5ZM9.98684 11.4474V9.94737H4.30263V11.4474H9.98684ZM14.25 7.10526V8.60526H4.30263V7.10526H14.25ZM14.25 5.76316V4.26316H4.30263V5.76316H14.25Z" fill="#202124"/>
</svg>

<svg width="19" height="20" fill="none" xmlns="http://www.w3.org/2000/svg"><path fill-rule="evenodd" clip-rule="evenodd" d="M16.382 0c1.146 0 2.086.89 2.165 2.016l.006.155V13.54c0 1.147-.89 2.087-2.016 2.166l-.155.005h-2.093v3.494L9.05 15.71H2.17c-1.094 0-2-.81-2.15-1.864l-.016-.152L0 13.54V2.171C0 1.025.89.085 2.016.005L2.171 0h14.21Zm0 1.5H2.172a.672.672 0 0 0-.665.572l-.007.1v11.367c0 .337.249.616.572.664l.1.008h7.331l3.287 2.19v-2.19h3.592a.672.672 0 0 0 .663-.572l.008-.1V2.171a.672.672 0 0 0-.572-.664l-.1-.007Zm-6.395 9.947v-1.5H4.303v1.5h5.684Zm4.263-4.342v1.5H4.303v-1.5h9.947Zm0-1.342v-1.5H4.303v1.5h9.947Z" fill="#202124"/></svg>
